Sources/FrostedUI/Resources/Icons.xcassets/arrowUpRightFromSquareFlush12.imageset/arrow-up-right-from-square-flush-12.svg

<svg width="12" height="12" viewBox="0 0 12 12" fill="none" xmlns="http://www.w3.org/2000/svg" data-fui-icon="true">
  <path
    d="M4.625 1.125C5.03921 1.125 5.375 1.46079 5.375 1.875C5.375 2.28921 5.03921 2.625 4.625 2.625H3.47461C3.18244 2.625 3.00798 2.6252 2.87891 2.63574C2.75884 2.64558 2.74534 2.66069 2.76172 2.65234C2.71469 2.67631 2.67631 2.71469 2.65234 2.76172C2.66069 2.74534 2.64558 2.75884 2.63574 2.87891C2.6252 3.00798 2.625 3.18244 2.625 3.47461V8.52539C2.625 8.81756 2.6252 8.99202 2.63574 9.12109C2.64558 9.24118 2.6607 9.25468 2.65234 9.23828C2.66433 9.26181 2.67981 9.28333 2.69824 9.30176L2.76172 9.34766L2.76953 9.34863C2.78606 9.35247 2.81932 9.35938 2.87891 9.36426C3.00797 9.3748 3.18244 9.375 3.47461 9.375H8.52539C8.81756 9.375 8.99202 9.3748 9.12109 9.36426C9.24117 9.35442 9.25468 9.3393 9.23828 9.34766C9.28527 9.32372 9.32372 9.28527 9.34766 9.23828C9.3393 9.25468 9.35442 9.24117 9.36426 9.12109C9.3748 8.99202 9.375 8.81756 9.375 8.52539V7.375C9.375 6.96079 9.71079 6.625 10.125 6.625C10.5392 6.625 10.875 6.96079 10.875 7.375V8.52539C10.875 8.79289 10.8751 9.03888 10.8584 9.24316C10.841 9.45621 10.8019 9.68972 10.6846 9.91992C10.5168 10.249 10.249 10.5168 9.91992 10.6846C9.68972 10.8019 9.45621 10.841 9.24316 10.8584C9.03888 10.8751 8.79289 10.875 8.52539 10.875H3.47461C3.20711 10.875 2.96112 10.8751 2.75684 10.8584C2.54379 10.841 2.31027 10.8019 2.08008 10.6846C1.75091 10.5168 1.48315 10.249 1.31543 9.91992C1.19813 9.68972 1.15903 9.45621 1.1416 9.24316C1.12491 9.03888 1.125 8.79289 1.125 8.52539V3.47461C1.125 3.20711 1.12491 2.96111 1.1416 2.75684C1.15903 2.54379 1.19814 2.31027 1.31543 2.08008C1.48317 1.75097 1.75097 1.48317 2.08008 1.31543C2.31027 1.19814 2.54379 1.15903 2.75684 1.1416C2.96111 1.12491 3.20711 1.125 3.47461 1.125H4.625ZM10.125 1.125C10.5392 1.125 10.875 1.46079 10.875 1.875V5.125C10.875 5.53921 10.5392 5.875 10.125 5.875C9.71079 5.875 9.375 5.53921 9.375 5.125V3.68555L6.03027 7.03027C5.73738 7.32317 5.26262 7.32317 4.96973 7.03027C4.67683 6.73738 4.67683 6.26262 4.96973 5.96973L8.31445 2.625H6.875C6.46079 2.625 6.125 2.28921 6.125 1.875C6.125 1.46079 6.46079 1.125 6.875 1.125H10.125Z"
    fill="currentColor"
  />
</svg>

<svg xmlns="http://www.w3.org/2000/svg" width="12" height="12" fill="none" data-fui-icon="true" viewBox="0 0 12 12"><path fill="currentColor" d="M4.625 1.125a.75.75 0 0 1 0 1.5h-1.15c-.293 0-.467 0-.596.01-.12.01-.134.026-.117.017a.25.25 0 0 0-.11.11c.009-.017-.006-.003-.016.117-.01.129-.011.303-.011.596v5.05c0 .293 0 .467.01.596.01.12.026.134.017.117a.3.3 0 0 0 .046.064l.064.046h.008q.022.007.109.016c.129.01.303.011.596.011h5.05c.293 0 .467 0 .596-.01.12-.01.134-.026.117-.017a.25.25 0 0 0 .11-.11c-.009.017.006.003.016-.117.01-.129.011-.303.011-.596v-1.15a.75.75 0 0 1 1.5 0v1.15c0 .268 0 .514-.017.718a1.8 1.8 0 0 1-.173.677c-.168.329-.436.597-.765.765-.23.117-.464.156-.677.173-.204.017-.45.017-.718.017h-5.05c-.268 0-.514 0-.718-.017a1.8 1.8 0 0 1-.677-.173 1.75 1.75 0 0 1-.765-.765 1.8 1.8 0 0 1-.173-.677c-.017-.204-.017-.45-.017-.718v-5.05c0-.268 0-.514.017-.718.017-.213.056-.447.173-.677a1.75 1.75 0 0 1 .765-.765c.23-.117.464-.156.677-.173.204-.017.45-.017.718-.017zm5.5 0a.75.75 0 0 1 .75.75v3.25a.75.75 0 0 1-1.5 0v-1.44L6.03 7.03a.75.75 0 1 1-1.06-1.06l3.344-3.345H6.875a.75.75 0 0 1 0-1.5z"/></svg>
